X: 11755
T: Elevated
R: reel
M: 4/4
K: Amajor
af||e2cA BecB|Acef ecce|a2c'a bcaf|ecAB cBBf|
e2cA BecB|Acef ecce|a2c'a bcaf|ecBc A2af|
e2cA BecB|Acef ecce|a2c'a bcaf|ecAB cBaf|
e2cA BecB|Acef ecce|a2c'a bcaf|ecBc A2ce||
|:a2c'a bac'a|f2ea f2ef|a2c'a bc'af|ecAB cBBe|
a2c'a bac'a|f2ea f2ef|babc' afec|1 BdcB ABce:|2 Bcde fgaf||

